Catalina-dark/status/16/raven-reader-symbolic.svg

<?xml version="1.0" encoding="UTF-8" standalone="no"?>
<!-- Created with Inkscape (http://www.inkscape.org/) -->

<svg
   xmlns:dc="http://purl.org/dc/elements/1.1/"
   xmlns:cc="http://creativecommons.org/ns#"
   xmlns:rdf="http://www.w3.org/1999/02/22-rdf-syntax-ns#"
   xmlns:svg="http://www.w3.org/2000/svg"
   xmlns="http://www.w3.org/2000/svg"
   xmlns:sodipodi="http://sodipodi.sourceforge.net/DTD/sodipodi-0.dtd"
   xmlns:inkscape="http://www.inkscape.org/namespaces/inkscape"
   version="1.1"
   id="svg2"
   width="16"
   height="16"
   viewBox="0 0 16 16"
   sodipodi:docname="raven-reader-tray.svg"
   inkscape:version="0.92.4 5da689c313, 2019-01-14">
  <metadata
     id="metadata8">
    <rdf:RDF>
      <cc:Work
         rdf:about="">
        <dc:format>image/svg+xml</dc:format>
        <dc:type
           rdf:resource="http://purl.org/dc/dcmitype/StillImage" />
        <dc:title></dc:title>
      </cc:Work>
    </rdf:RDF>
  </metadata>
  <defs
     id="defs6" />
  <sodipodi:namedview
     pagecolor="#ffffff"
     bordercolor="#666666"
     borderopacity="1"
     objecttolerance="10"
     gridtolerance="10"
     guidetolerance="10"
     inkscape:pageopacity="0"
     inkscape:pageshadow="2"
     inkscape:window-width="1920"
     inkscape:window-height="1027"
     id="namedview4"
     showgrid="true"
     inkscape:zoom="16"
     inkscape:cx="5.0456264"
     inkscape:cy="10.654541"
     inkscape:window-x="0"
     inkscape:window-y="30"
     inkscape:window-maximized="1"
     inkscape:current-layer="svg2">
    <inkscape:grid
       type="xygrid"
       id="grid817"
       spacingx="1"
       spacingy="1" />
  </sodipodi:namedview>
  <path
     style="fill:#000000;fill-opacity:1;stroke:none;stroke-width:0.13275424px;stroke-linecap:butt;stroke-linejoin:miter;stroke-opacity:1"
     d="M 10,2 C 9.4411073,2.0181622 9.1094941,2.733568 9.4487592,3.1553759 l 2.9802278,2.980229 c 0.478096,0.4344461 1.202071,0.062027 1.20101,-0.577688 L 13.617054,2.6106164 C 13.619674,2.3554626 13.30348,2.0076068 13.006406,2 Z M 2.7973057,2.018668 C 2.4097342,2.0141545 2.0977532,2.330623 2.0977532,2.7182202 v 2.2591559 c 0.00237,0.3007972 0.1090105,0.4027086 0.3681855,0.6710315 2.2262612,2.2248452 5.015577,4.9357684 7.4775373,7.4217904 0.268323,0.259177 0.370234,0.365809 0.671031,0.368184 h 2.259155 c 0.387597,0 0.704066,-0.311981 0.699553,-0.699552 l -0.02774,-2.388279 C 13.524003,10.006805 13.35772,9.9281648 13.109612,9.6621477 10.954687,7.5057187 8.2558234,4.8826784 5.8739886,2.482271 5.6079717,2.2341625 5.5293316,2.0678785 5.1855855,2.046411 Z m 0.021261,7.1855811 C 2.449341,9.2160216 2.1073949,9.5293375 2.108125,9.9691419 l 0.012971,2.9472991 c -0.00265,0.255153 0.313544,0.60301 0.6106175,0.610617 h 3.0064098 c 0.5588928,-0.01816 0.8905068,-0.733569 0.5512414,-1.155375 L 3.3093953,9.3917128 C 3.1599905,9.2559489 2.9863981,9.1988952 2.8185667,9.2042491 Z"
     id="path4511-1"
     inkscape:connector-curvature="0" />
</svg>

<svg width="16" height="16" version="1.1" viewBox="0 0 16 16" xmlns="http://www.w3.org/2000/svg">
<path d="m10 2c-0.55889 0.018162-0.89051 0.73357-0.55124 1.1554l2.9802 2.9802c0.4781 0.43445 1.2021 0.062027 1.201-0.57769l-0.012943-2.9473c0.00262-0.25515-0.31357-0.60301-0.61065-0.61062zm-7.2027 0.018668c-0.38757-0.0045135-0.69955 0.31196-0.69955 0.69955v2.2592c0.00237 0.3008 0.10901 0.40271 0.36819 0.67103 2.2263 2.2248 5.0156 4.9358 7.4775 7.4218 0.26832 0.25918 0.37023 0.36581 0.67103 0.36818h2.2592c0.3876 0 0.70407-0.31198 0.69955-0.69955l-0.02774-2.3883c-0.021472-0.34375-0.18776-0.42239-0.43586-0.6884-2.1549-2.1564-4.8538-4.7795-7.2356-7.1799-0.26602-0.24811-0.34466-0.41439-0.6884-0.43586zm0.021261 7.1856c-0.36923 0.011772-0.71117 0.32509-0.71044 0.76489l0.012971 2.9473c-0.00265 0.25515 0.31354 0.60301 0.61062 0.61062h3.0064c0.55889-0.01816 0.89051-0.73357 0.55124-1.1554l-2.98-2.98c-0.1494-0.13576-0.323-0.19282-0.49083-0.18746z"/>
</svg>
